Adwaita++-Light/panel/24/laptopdisconnected.svg

<svg height="24" width="24" xmlns="http://www.w3.org/2000/svg">
  <path d="m4 4c-.554 0-1 .446-1 1v10c0 .554.446 1 1 1h-2v1c0 .554.892 1 2 1h14c1.108 0 2-.446 2-1v-1h-2c.554 0 1-.446 1-1v-10c0-.554-.446-1-1-1zm1 2h12v9h-12zm4 10h4v1h-4z" fill="#4285f4" transform="translate(1 1)"/>
</svg>

<svg xmlns="http://www.w3.org/2000/svg" width="24" height="24" version="1.1">
 <defs>
  <style id="current-color-scheme" type="text/css">
   .ColorScheme-Text { color:#444444; } .ColorScheme-Highlight { color:#4285f4; }
  </style>
 </defs>
 <g transform="translate(1,1)">
  <path style="fill:currentColor" class="ColorScheme-Highlight" d="M 4,4 C 3.446,4 3,4.446 3,5 V 15 C 3,15.554 3.446,16 4,16 H 2 V 17 C 2,17.554 2.892,18 4,18 H 18 C 19.108,18 20,17.554 20,17 V 16 H 18 C 18.554,16 19,15.554 19,15 V 5 C 19,4.446 18.554,4 18,4 Z M 5,6 H 17 V 15 H 5 Z M 9,16 H 13 V 17 H 9 Z"/>
 </g>
</svg>
